X:1
T:She's A Lassie From Lancashire
M:3/4
L:1/4
Q:1/4=90
R:Clog Waltz
Z:Chris Partington tradtunes 2003-5-14
N:Over the phone from Gill Baldwin of Todmorden, Concertina
K:D
d2e|fdB|A2F|A3|E2F|GFE|F2G|A3|
d2e|fdB|A2F|A3|e3|f3|e3-|e3||
d2e|fdB|A2F|A3|E2F|GFE|F2G|A3|
dfd|ecA|dfd|ecA|d3|e3|d3|]
